X: 6
T: Left Handed Polka
C: Christie Hubbard 2011
R: Polka
M: 2/4
L: 1/8
K: Am
|: "Am"Ac cA | "G" BG G/A/B | "Am" Ac cA | "Em" .G2 "E".^G2 |
   "Am"Ac cA | "G" BG G/A/B | "F" cA  "E"B^G |1 "Am" A2 A2 :|2 "Am" A2 "G"B2 |
| "C"cg gc | "G"BG G/A/B | "C"cg gc | "G" B2 B2 |
  "C"cg gc | "G"BG G/A/B | "F"cA "E" B^G | "Am" A2 AB |
  "C"cg gc | "E7"B^g gB | "Am" Aa ac' | "E" b2 b2 |
  "F"c'/b/a bg | aA Ac | "Em" BG G/A/B|"Am" A2 A2 ||

%%newpage
%%header "Nail That Catfish / Haapavesi		$P"


